T: All Hands Around
M: 4/4
L: 1/8
K: Gmaj
|: (3DEF | G2 Be (3ded Bd | gdBd cAFA | ~ | fdcA G2 :||: ga | bagb a2 fa | gfeg fddg | ~ | fdcA G2 :|
